src/assets/filled/UserTag.svg

<?xml version="1.0" encoding="UTF-8"?>
<svg width="24" height="24" viewBox="0 0 24 24" xmlns="http://www.w3.org/2000/svg">
 <path d="m18 2h-12c-1.66 0-3 1.33-3 2.97v10.91c0 1.64 1.34 2.97 3 2.97h0.76c0.8 0 1.56 0.31 2.12 0.87l1.71 1.69c0.78 0.77 2.05 0.77 2.83 0l1.71-1.69c0.56-0.56 1.33-0.87 2.12-0.87h0.75c1.66 0 3-1.33 3-2.97v-10.91c0-1.64-1.34-2.97-3-2.97zm-6 3.75c1.29 0 2.33 1.04 2.33 2.33s-1.04 2.33-2.33 2.33-2.33-1.05-2.33-2.33c0-1.29 1.04-2.33 2.33-2.33zm2.68 9.31h-5.36c-0.81 0-1.28-0.9-0.83-1.57 0.68-1.01 2-1.69 3.51-1.69s2.83 0.68 3.51 1.69c0.45 0.67-0.03 1.57-0.83 1.57z"/>
</svg>

<svg width="24" height="24" viewBox="0 0 24 24"  xmlns="http://www.w3.org/2000/svg">
<path d="M18 2H6C4.34 2 3 3.33 3 4.97V15.88C3 17.52 4.34 18.85 6 18.85H6.76C7.56 18.85 8.32 19.16 8.88 19.72L10.59 21.41C11.37 22.18 12.64 22.18 13.42 21.41L15.13 19.72C15.69 19.16 16.46 18.85 17.25 18.85H18C19.66 18.85 21 17.52 21 15.88V4.97C21 3.33 19.66 2 18 2ZM12 5.75C13.29 5.75 14.33 6.79 14.33 8.08C14.33 9.37 13.29 10.41 12 10.41C10.71 10.41 9.67 9.36 9.67 8.08C9.67 6.79 10.71 5.75 12 5.75ZM14.68 15.06H9.32C8.51 15.06 8.04 14.16 8.49 13.49C9.17 12.48 10.49 11.8 12 11.8C13.51 11.8 14.83 12.48 15.51 13.49C15.96 14.16 15.48 15.06 14.68 15.06Z" />
</svg>
